X:20
T:Red Wing
T:Union Maid
M:C
L:1/4
Z:abc-transcription Josh Larios <hades@elsewhere.org>, 2017.02.14
C:Kerry Mills (1907)
G:Key: G
K:G
DEF [P:A]|:"G"G-G/G/GB | "G7"d3B | "C"cege | "G"d3B | 
|"D7"cc/B/Ac | "G"BB/A/GB |1 "A7"AEFG | "D7"AFED :|2 "A7"AE "D7"FD | "G"G ||
ggf [P:B]|:"C"e2e-e/e/ | egfe | "G"d2B2- | Bded |
| "D7"d2A2- |1 Aded | "G"d2B2- | Bggf :|2 AcBA| "G"G2G>G | G ||

